img/footer-telegramm-logo.svg

<svg width="14" height="14" viewBox="0 0 14 14" fill="none" xmlns="http://www.w3.org/2000/svg">
<g id="Logo 8">
<path id="Vector" d="M6.56136 13.4622C10.1826 13.4622 13.1182 10.5265 13.1182 6.90527C13.1182 3.28401 10.1826 0.348389 6.56136 0.348389C2.9401 0.348389 0.00447845 3.28401 0.00447845 6.90527C0.00447845 10.5265 2.9401 13.4622 6.56136 13.4622Z" fill="black"/>
<path id="Vector_2" d="M2.8153 6.76158C2.8153 6.76158 6.06325 5.3798 7.18969 4.89324C7.62151 4.69863 9.0859 4.07583 9.0859 4.07583C9.0859 4.07583 9.76178 3.80338 9.70545 4.46507C9.68666 4.73755 9.53648 5.69117 9.38629 6.72266C9.16099 8.18231 8.91692 9.77818 8.91692 9.77818C8.91692 9.77818 8.87938 10.2258 8.56022 10.3037C8.24106 10.3815 7.71537 10.0312 7.62151 9.95334C7.54639 9.89497 6.21344 9.01917 5.72531 8.591C5.59388 8.47424 5.4437 8.24071 5.74407 7.96823C6.41995 7.32598 7.22724 6.52805 7.71537 6.02204C7.94067 5.78849 8.16595 5.24356 7.22724 5.90525C5.89428 6.8589 4.58008 7.75415 4.58008 7.75415C4.58008 7.75415 4.27969 7.94876 3.71647 7.77359C3.15322 7.59846 2.49612 7.3649 2.49612 7.3649C2.49612 7.3649 2.04557 7.07298 2.8153 6.76158Z" fill="white"/>
</g>
</svg>

<svg width="14" height="14" fill="none" xmlns="http://www.w3.org/2000/svg"><path d="M6.561 13.462a6.557 6.557 0 1 0 0-13.114 6.557 6.557 0 0 0 0 13.114Z" fill="#000"/><path d="M2.815 6.762S6.063 5.38 7.19 4.893c.432-.194 1.896-.817 1.896-.817s.676-.273.62.39c-.02.272-.17 1.225-.32 2.257l-.47 3.055s-.037.448-.356.526c-.319.078-.845-.273-.938-.35-.076-.059-1.409-.935-1.897-1.363-.131-.117-.281-.35.02-.623a72.904 72.904 0 0 0 1.97-1.946c.226-.234.451-.778-.488-.117-1.333.954-2.647 1.85-2.647 1.85s-.3.194-.864.019a38.038 38.038 0 0 1-1.22-.41s-.45-.291.32-.602Z" fill="#fff"/></svg>
